symbols/web/motorcycle/materialsymbolsoutlined/motorcycle_wght100gradN25_40px.svg

<svg xmlns="http://www.w3.org/2000/svg" height="40" width="40"><path d="M17.708 18.167h-5.083 9.708Zm-8.5 11.291q-2.583 0-4.354-1.791-1.771-1.792-1.771-4.334 0-2.541 1.771-4.333 1.771-1.792 4.354-1.792h19.875L23.375 11.5h-4.333v-.958h4.791l6.625 6.625q2.709-.125 4.584 1.729 1.875 1.854 1.875 4.437 0 2.542-1.771 4.334-1.771 1.791-4.354 1.791-2.542 0-4.313-1.791-1.771-1.792-1.771-4.334 0-1.5.709-2.812.708-1.313 1.875-2.271h-3.667L18 23.875h-2.75q-.167 2.375-1.896 3.979-1.729 1.604-4.146 1.604Zm21.584-.958q2.166 0 3.666-1.521t1.5-3.646q0-2.125-1.5-3.645-1.5-1.521-3.625-1.521-2.166 0-3.666 1.5t-1.5 3.666q0 2.125 1.479 3.646t3.646 1.521Zm-21.584 0q1.959 0 3.438-1.333 1.479-1.334 1.771-3.375H9.375v-.959h5.042q-.25-2.041-1.75-3.354-1.5-1.312-3.459-1.312-2.125 0-3.646 1.5-1.52 1.5-1.52 3.666 0 2.125 1.52 3.646Q7.083 28.5 9.208 28.5Zm6.125-5.667h2.375l4.625-4.666h-9.708q1.167.791 1.896 2 .729 1.208.812 2.666Z"/></svg>

<svg xmlns="http://www.w3.org/2000/svg" height="40" width="40"><path d="M17.708 18.167H15.333Q15.25 18.167 14.521 18.167Q13.792 18.167 12.625 18.167H22.333ZM9.208 29.458Q6.625 29.458 4.854 27.667Q3.083 25.875 3.083 23.333Q3.083 20.792 4.854 19Q6.625 17.208 9.208 17.208H29.083L23.375 11.5H19.042V10.542H23.833L30.458 17.167Q33.167 17.042 35.042 18.896Q36.917 20.75 36.917 23.333Q36.917 25.875 35.146 27.667Q33.375 29.458 30.792 29.458Q28.25 29.458 26.479 27.667Q24.708 25.875 24.708 23.333Q24.708 21.833 25.417 20.521Q26.125 19.208 27.292 18.25H23.625L18 23.875H15.25Q15.083 26.25 13.354 27.854Q11.625 29.458 9.208 29.458ZM30.792 28.5Q32.958 28.5 34.458 26.979Q35.958 25.458 35.958 23.333Q35.958 21.208 34.458 19.688Q32.958 18.167 30.833 18.167Q28.667 18.167 27.167 19.667Q25.667 21.167 25.667 23.333Q25.667 25.458 27.146 26.979Q28.625 28.5 30.792 28.5ZM9.208 28.5Q11.167 28.5 12.646 27.167Q14.125 25.833 14.417 23.792H9.375V22.833H14.417Q14.167 20.792 12.667 19.479Q11.167 18.167 9.208 18.167Q7.083 18.167 5.562 19.667Q4.042 21.167 4.042 23.333Q4.042 25.458 5.562 26.979Q7.083 28.5 9.208 28.5ZM15.333 22.833H17.708L22.333 18.167H12.625Q13.792 18.958 14.521 20.167Q15.25 21.375 15.333 22.833Z"/></svg>
